icons/svg/sleep-off.svg

﻿<?xml version="1.0" encoding="utf-8"?>
<!DOCTYPE svg PUBLIC "-//W3C//DTD SVG 1.1//EN" "http://www.w3.org/Graphics/SVG/1.1/DTD/svg11.dtd">
<svg xmlns="http://www.w3.org/2000/svg" xmlns:xlink="http://www.w3.org/1999/xlink" version="1.1" baseProfile="full" width="24" height="24" viewBox="0 0 24.00 24.00" enable-background="new 0 0 24.00 24.00" xml:space="preserve">
	<path fill="#000000" fill-opacity="1" stroke-width="0.2" stroke-linejoin="round" d="M 2,5.26848L 3.27711,4L 20,20.7229L 18.7315,22L 12.7315,16L 9,16L 9,14L 9.79419,13.0627L 2,5.26848 Z M 23,12L 17,12L 17,10L 20.3892,6L 17,6.00001L 17,4.00001L 23,4.00001L 23,6.00001L 19.6188,10L 23,10L 23,12 Z M 9.82269,8.00001L 15,8.00001L 15,10L 13.5445,11.7218L 9.82269,8.00001 Z M 7,20L 1,20L 1,18L 4.38918,14L 1,14L 1,12L 6.99999,12L 6.99999,14L 3.61879,18L 7,18L 7,20 Z "/>
</svg>

<svg xmlns="http://www.w3.org/2000/svg" version="1.1" baseProfile="full" width="24" height="24" viewBox="0 0 24.00 24.00" xml:space="preserve"><path fill="#000" fill-opacity="1" stroke-width=".2" stroke-linejoin="round" d="M2 5.268L3.277 4 20 20.723 18.732 22l-6-6H9v-2l.794-.937L2 5.268zM23 12h-6v-2l3.39-4H17V4h6v2l-3.38 4H23v2zM9.823 8H15v2l-1.456 1.722L9.824 8zM7 20H1v-2l3.39-4H1v-2h6v2l-3.38 4H7v2z"/></svg>
